en/_assets/data-transfer/icons/ydb-icon.svg

<svg width="32" height="33" viewBox="0 0 32 33" fill="none" xmlns="http://www.w3.org/2000/svg">
<rect y="0.516602" width="32" height="32" rx="16" fill="#5282FF"/>
<path fill-rule="evenodd" clip-rule="evenodd" d="M24 10.0166C24 10.845 22.6569 11.5166 21 11.5166C19.3431 11.5166 18 10.845 18 10.0166C18 9.18817 19.3431 8.5166 21 8.5166C22.6569 8.5166 24 9.18817 24 10.0166ZM13 20.1166V22.8166C13 23.7166 14.3 24.4166 16 24.4166C17.7 24.4166 19 23.7166 19 22.8166V20.1166C18.2 20.8166 17.1 21.1166 16 21.1166C14.9 21.1166 13.8 20.8166 13 20.1166ZM18 11.5166V11.1166C18.8 11.8166 19.9 12.1166 21 12.1166C22.1 12.1166 23.2 11.8166 24 11.1166V13.9166C24 14.7166 22.8 15.4166 21.2 15.5166L18.7247 18.388C18.9014 18.5792 19 18.7921 19 19.0166C19 19.845 17.6569 20.5166 16 20.5166C14.3431 20.5166 13 19.845 13 19.0166C13 18.8113 13.0825 18.6157 13.2318 18.4375L10.8 15.6166C9.3 15.5166 8 14.8166 8 14.0166V11.1166C8.8 11.8166 9.9 12.1166 11 12.1166C12.1 12.1166 13.2 11.8166 14 11.1166V11.5166L18 11.5166ZM17.7242 17.7889C17.2364 17.6173 16.6417 17.5166 16 17.5166C15.7351 17.5166 15.4782 17.5338 15.2336 17.566C14.8484 17.6142 14.4565 17.6978 14.1 17.8166L12 15.4166C13.1 15.2166 14 14.6166 14 13.9166V12.5166H18V13.9166C18 14.6166 18.7 15.2166 19.8 15.4166L17.7242 17.7889ZM14 10.0166C14 10.845 12.6569 11.5166 11 11.5166C9.34315 11.5166 8 10.845 8 10.0166C8 9.18817 9.34315 8.5166 11 8.5166C12.6569 8.5166 14 9.18817 14 10.0166Z" fill="white"/>
</svg>

<svg xmlns="http://www.w3.org/2000/svg" width="32" height="33" fill="none" viewBox="0 0 32 33">
    <rect width="32" height="32" y=".517" fill="#5282FF" rx="16"/>
    <path fill="#fff" fill-rule="evenodd" d="M24 10.017c0 .828-1.343 1.5-3 1.5s-3-.672-3-1.5c0-.829 1.343-1.5 3-1.5s3 .671 3 1.5Zm-11 10.1v2.7c0 .9 1.3 1.6 3 1.6s3-.7 3-1.6v-2.7c-.8.7-1.9 1-3 1s-2.2-.3-3-1Zm5-8.6v-.4c.8.7 1.9 1 3 1s2.2-.3 3-1v2.8c0 .8-1.2 1.5-2.8 1.6l-2.475 2.871c.176.191.275.404.275.629 0 .828-1.343 1.5-3 1.5s-3-.672-3-1.5a.9.9 0 0 1 .232-.58l-2.432-2.82c-1.5-.1-2.8-.8-2.8-1.6v-2.9c.8.7 1.9 1 3 1s2.2-.3 3-1v.4h4Zm-.276 6.272A5.27 5.27 0 0 0 16 17.517c-.265 0-.522.017-.766.049a5.994 5.994 0 0 0-1.134.25l-2.1-2.4c1.1-.2 2-.8 2-1.5v-1.4h4v1.4c0 .7.7 1.3 1.8 1.5l-2.076 2.373ZM14 10.017c0 .828-1.343 1.5-3 1.5s-3-.672-3-1.5c0-.829 1.343-1.5 3-1.5s3 .671 3 1.5Z" clip-rule="evenodd"/>
</svg>
